X: 36468
T: Sedorwood
R: jig
M: 6/8
K: Aminor
EAB cBA|ecA cBA|~G3 B,DG|~G3 BAG|
EAB cBA|ecA fed|cBA ^GBe|1 cAA A2^D:|2 cAA A2B||
|:c3 BcB|AGF G2F|EAc BcA|Bddd2e|
fdA ecA|cBA B^GE|FED E2B,|CA,A, A,2B:|

